X: 154
T:Reel of Rio, The _
M:4/4
L:1/8
C:Trad
K:G
GE |: DEGA B B2 d | eg g2 ag g2 | gedB dedB | (3cBA BG AEGE!
DE GA B B2 d | eg g2 ag g2 |[1g g2 a gedB | AGBA G2 GE:|
|[2 gb (3bbb gedB | AGBA GABd ||!
|:eg g2 ag g2|bg g2 edBd|eB BA (3BBA Bd | (3gfe dB AEGE |!
DEGA B B2 d|egg2 agg2|g g2 a gedB|AGBA G2 GE |!
DEGA B B2 d|eg g2 ag g2|gb (3bbb gedB|AGBA G4||
